X:1
T:Cedan l'antiche - Marenzio
T:James Gibb editions
T:#
%%score { 1 | 2 } { 3 | 4 } 5 6
L:1/8
Q:1/4=140
M:2/2
K:Bb
V:1 treble nm="Soprano I" snm="S"
V:2 treble 
V:3 treble nm="Alto I" snm="A"
V:4 treble 
V:5 treble-8 nm="Tenor" snm="T"
V:6 bass nm="Bass" snm="B"
V:1
 d8- | d8 | f8 |"^Cedan 1'antiche tue chiare vittorie" c8 | c4 c4 | c4 c4- | c4 A4 | A4 (B4- | %8
w: Ce\-||dan|l'an-|ti- che|tue chia\-|* re|vit- to\-|
"^Luca Marenzio\n(1553 - 1599)" B4 A2 G2 | A8) | B8 | z4 d4 |[M:2/2] (d2 cB c2) A2 | B2 c2 d4 | %14
w: ||rie|Re-|gi\- * * * na~an-|cor del mon-|
 f8 | z4 z2 d2 | (d2 cB c2) A2 | B2 c2 d4 | c4 d2 f2 | =e4 f4 | z2 A2 B2 A2 | c4 c4 | d2 d2 d4 | %23
w: do,|re-|gi\- * * * na~an-|cor del mon-|d'al- tie- ra|Ro- ma,|al- tie- ra|Ro- ma,|E~~i grand' ar-|
 d8 | z4 c2 c2 | (c3 B A4) | G8 | z4 c4 | A8 | F8 | f8 | d8 | B8- | B4 z4 | z2 d3 c B2 | A4 A4 | %36
w: chi,|e~~i grand'|ar\- * *|chi|ch'il|tem-|po,|ch'il|tem-|po||an- co non|do- ma|
 z4 B4 | B8- | B8 | G8 | B4 c4 | A2 d3 c B2 | A4 A4 ||[M:3/2] x12 |[M:3/2][Q:1/4=210] B8 B4 | %45
w: S'in-|chi\-||nin|con le|lor al- te me-|mo- rie.||Can- tin,|
 B8 B4 | A4 A4 A4 | B8 B4 | B4 c8 | (B8 A4) ||[M:2/2][Q:1/4=140] B4 z2 d2 | d4 z4 | %52
w: can- tin|no- vi po-|e- mi~~e|nov' hist-|o\- *|rie De|tuoi|
[M:2/2] z2 d3 d c2 | d4 z4 | z2 d3 d c2 | =B8 | c8 | z8 | z8 | z8 | z8 | c8 | z8 | c8 | z4 (A4- | %65
w: no- vi tro-|fei,|no- vi tro-|fe-|i|||||E,||e|cin\-|
 A2 GF G2 A2 | G2 F2 G4) | F8 | z8 | z8 | z4 B4- | B4 B4 | B8 | B4 c4- | c4 B4 | _A8 | G8 | %77
w: ||ga|||quel\-|* la|ve-|ne- ra\-|* bil|chio-|ma,|
 z4 B4- | B2 AG A2 A2 | B3 A G2 F2 | (=E2 F4 E2) | F4 F4 | G4 c4- | c2 c2 f4 | f8 | z4 d4- | %86
w: No\-|* ve ghir- lan- de|di per- pe- tue|glo\- * *|rie, di|per- pe\-|* tue glo-|rie,|no\-|
 d2 cB c2 d2 | B3 c d2 B2 | (f6 e2 | d8) | c8 | z4 z2 B2- | B2 A2 G2 F2 | (=E4 F4- | F4 =E4) | %95
w: * ve ghir- lan- de|di per- pe- tue|glo\- *||rie,|di|* per- pe- tue|glo\- *||
 F8 || z8 | z8 | z8 | z8 | z4 F4- | F4 B4- | B2 A2 d4 | d4 d2 f2 | d4 f2 f2 | d4 f2 f2 | d4 d4 | %107
w: rie.|||||Men\-|* tre|* no- vel-|la~~al- ma Vit-|to- ria, Vit-|to- ria, Vit-|to- ria|
 z4 z2 d2 | (c2 B2 c2 d2 | c2 B2 A2 G2 | A4) A2 A2 | c3 c c2 c2 | (B3 A G4) | A8 | z8 | z8 | z8 | %117
w: in-|tor\- * * *||* no, Di|nu- me- ro~~in- fi-|ni\- * *|to||||
 z2 d2 (d2 cB | A2) c2 c2 BA | G4 G4 | z2 d2 e2 c2 | d4 c4 | z8 | z8 | z2 d2 e2 c2 | d4 c4 | %126
w: il ca\- * *|* ro cin\- * *|* to|De' co- ri~~e|d'al- me,|||de' co- ri~~e|d'al- me,|
 z2 d2 e2 c2 | (e2 d3 c c2- | c2 =BA B4) | c4 z2 c2 | c4 c2 c2- | c2 c2 (d4- | d2 c2 B4- | %133
w: de co- ri~~e|d'al\- * * *||me in|bel tri- on\-|* fo me\-||
 B2 AG A4) | B8- | B8 | z8 | B8 | B8 | z2 d2 (BABc | d8) | d8 | z4 f4- | f4 e4- | e2 d2 d2 d2 | %145
w: |na.|||Gl'oc-|chi|son l'ar\- * * *||mi|e|* più|* d'u- na ca-|
 (d2 cB c4- | c2 BA B4- | B2 AG A4) | B2 F2 E2 D2 | C2 B,2 z2 B,2 | C2 D2 E2 F2 | z2 f2 e2 d2 | %152
w: te\- * * *|||na Son le tue|trec- cie, son|le tue trec- cie,|son le tue|
 (c2 B4 A2) | B8 | z8 | d8 | e6 e2 | e4 e4 | d8 | d4 A4 | (=B2 c4 B2) | c4 z2 G2 | (A2 B4 A2) | %163
w: trec\- * *|cie.||O|for- tu-|na- to|gior-|no ch'io|ve\- * *|ni e|vi\- * *|
 B8 | z2 B4 c2 | d8 | z8 | z4 f4- | f4 e4- | e4[Q:1/4=138] (d4- | %170
w: di|e res-|tai||pre\-|* so~~e|* vin\-|
[Q:1/4=135] d4[Q:1/4=133] c2[Q:1/4=131] B2 |[Q:1/4=129] A4[Q:1/4=126] B4- | %172
w: ||
[Q:1/4=124] B2[Q:1/4=123] A[Q:1/4=123]G[Q:1/4=121] A4) | !fermata!B8 |] %174
w: |to.|
V:2
 B8- | B8 | c8 | A8 | G4 G4 | A8 | c8 | f4 f4 | f8- | f8 | d8- | d8 |[M:2/2] z8 | z4 z2 d2 | %14
w: Ce\-||dan|l'an-|ti- che|tue|chia-|re vit-|to\-||rie|||Re-|
 (d2 cB c2) A2 | B2 c2 d4 | f8 | z8 | z2 A2 B2 A2 | c4 c4 | c4 d2 f2 | =e4 f4 | f2 f2 f4 | f8- | %24
w: gi\- * * * na~an-|cor del mon-|do,||al- tie- ra|Ro- ma,|al- tie- ra|Ro- ma,|E~~i grand' ar-|chi,|
 f8 | z4 c2 c2 | c8- | c8 | c8 | f8 | d8 | (B6 c2 | d8) | z2 B3 B c2 | d4 B4 | z8 | z4 d4 | d8 | %38
w: |e~~i grand'|ar\-||chi|ch'il|tem-|po *||an- co non|do- ma||S'in-|chi-|
 G8 | z4 e4- | e4 e4 | d2 f3 e d2 | c4 c4 ||[M:3/2] x12 |[M:3/2] d8 d4 | e8 d4 | f4 f4 f4 | d8 d4 | %48
w: nin|con|* le|lor al- te me-|mo- rie.||Can- tin,|can- tin|no- vi po-|e- mi~~e|
 e8 f4- | f4 f8 ||[M:2/2] d8 | z2 d3 d c2 |[M:2/2] d4 z2 f2 | f8 | z2 F3 F F2 | G8 | G8 | z4 c4 | %58
w: nov' hist\-|* o-|rie|No- vi tro-|fei, de|tuoi|no- vi tro-|fe-|i|la|
 c4 c4 | d8 | c8 | z8 | c8 | z8 | c8 | z8 | z8 | z4 (d4 | d2 cB c2 d2 | c2 B2 c4) | d8 | z8 | z8 | %73
w: no- bil|so-|ma||E,||e|||cin\-|||ga|||
 z8 | z8 | z8 | z8 | z4 d4- | d2 cB c2 c2 | d3 c B2 A2 | (G2 F2 G4) | F8 | z8 | z4 d4- | %84
w: ||||No\-|* ve ghir- lan- de|di per- pe- tue|glo\- * *|rie,||no\-|
 d2 cB c2 c2 | d3 c B2 B2 | f8 | d8 | z8 | z8 | z4 c4- | c2 BA B2 F2 | c4 c4 | c4 c4 | c8 | c8 || %96
w: * ve ghir- lan- de|di per- pe- tue|glo-|rie,|||no\-|* ve ghir- lan- de|di per-|pe- tue|glo-|rie.|
 z8 | z8 | z4 F4- | F4 B4- | B2 A2 d4 | d8 | d8 | z2 f2 d4 | f2 f2 d4 | f2 f2 d4 | f8 | f8- | f8 | %109
w: ||Men\-|* tre|* no- vel-|la~~al-|ma|Vit- to-|ria, Vit- to-|ria, Vit- to-|ria~in-|tor\-||
 f8 | f4 c4 | e3 e e2 e2 | d8 | d8 | z2 d2 (d2 cB | A2) c2 (c2 BA | G3 A B3 c | d3 e f4) | f8 | %119
w: |no, Di|nu- me- ro~~in- fi-|ni-|to|il ca\- * *|* ro cin\- * *|||to|
 z2 d2 e2 c2 | d4 c4 | z4 e4 | (e2 dc B2) d2 | (d2 cB A4) | d4 z4 | z2 d2 e2 c2 | d4 c2 C2 | %127
w: De' co- ri~~e|d'al- me,|il|car\- * * * ro|cin\- * * *|to|de' co- ri~~e|d'al- me, de|
 (G3 F E2) F2 | D8 | =E4 z2 G2 | G4 G2 G2- | G2 A2 (B2 c2 | d2 e2 f4) | f8- | f8 | d8 | d8 | %137
w: co\- * * ri~~e|d'al-|me in|bel tri- on\-|* fo me\- *||na.||Gl'oc-|chi|
 z2 d2 (BABc | d4) d4 | z2 f2 (dcde | f4) B2 d2 | (BABc d4) | c8- | c8 | z4 f4- | f4 e4- | %146
w: son l'ar\- * * *|* mi,|son l'ar\- * * *|* mi, son|l'ar\- * * * *|mi||e|* più|
 e2 d2 d2 d2 | (d2 cB c4) | d4 z2 F2 | E2 D2 C2 B,2 | z2 B,2 C2 D2 | E2 F2 z2 f2 | e2 d2 c4 | d8 | %154
w: * d'u- na ca-|te\- * * *|na Son|le tue trec- cie,|son le tue|trec- cie, son|le tue trec-|cie.|
 z8 | B8 | B6 B2 | G4 c4 | B8 | A8 | z4 d4 | (=e2 f4 e2) | f4 z2 c2 | (d2 e4 d2) | e4 z4 | z4 f4- | %166
w: |O|for- tu-|na- to|gior-|no|ch'io|ve\- * *|ni e|vi\- * *|di|pre\-|
 f4 e4- | e4 (d4- | d4 c2 B2 | A4 B4- | B2 AG A2 B2 | c2) F2 z2 f2 | f8 | !fermata!d8 |] %174
w: * so~~e|* vin\-||||* to, e|vin-|to.|
V:3
 F8- | F8 | F8 | F8 | =E4 E4 | F8 | F8 | F4 D4 | F8- | F8 | F8- | F8 |[M:2/2] z8 | z4 F4 | F8 | %15
w: Ce\-||dan|l'an-|ti- che|tue|chia-|re vit-|to\-||rie|||Re-|gi-|
 D8 | z8 | z4 F4- | F4 F2 F2 | G4 A4 | z8 | z8 | B2 B2 B4 | B8 | A2 A2 A4 | A8 | z4 G4 | %27
w: na||al\-|* tie- ra|Ro- ma,|||E~~i grand' ar-|chi,|e~~i grand' ar-|chi,|e~~i|
 =E2 (F4 E2) | F4 F4- | F4 D4- | D4 B,4- | B,4 B4- | B4 G4- | G4 E4 | z2 F3 F G2 | C4 C4 | z4 F4 | %37
w: grand' ar\- *|chi ch'il|* tem\-|* po,|* ch'il|* tem\-|* po|an- co non|do- ma|S'in-|
 F4 B,4 | z4 B4 | B8 | E8 | z8 | z8 ||[M:3/2] x12 |[M:3/2] F8 F4 | G8 F4 | F4 F4 F4 | F8 F4 | %48
w: chi- nin,|s'in-|chi|nin.||||Can- tin,|can- tin|no- vi po-|e- mi~~e|
 G8 F4- | F4 F8 ||[M:2/2] F8 | z2 B3 B A2 |[M:2/2] B4 z4 | z2 d3 d c2 | d4 z4 | z8 | z8 | A8 | %58
w: nov' hist\-|* o-|rie|No- vi tro-|fei,|no- vi tro-|fei,|||la|
 G4 A4 | B8 | A8 | z4 (A4- | A2 GF G2 A2 | G2 F2 G4) | A8 | c8- | c8 | z4 (B4- | B2 AG A2 B2 | %69
w: no- bil|so-|ma|Cin\-|||ga,|e||cin\-||
 A2 B4 A2) | B4 F4- | F4 G4 | G8 | G4 _A4- | A4 G4 | (F2 ED C2 D2 | E4) D4 | z8 | z8 | z8 | %80
w: |ga quel\-|* la|ve-|ne- ra\-|* bil|chio\- * * * *|* ma,||||
 z4 c4- | c2 =BA B2 B2 | c3 _B A2 G2 | A4 B4 | z4 F4- | F2 F2 G2 F2 | F4 F4 | z4 d4- | %88
w: No\-|* ve ghir- lan- de|di per- pe- tue|glo- rie,|di|* per- pe- tue|glo- rie,|no\-|
 d2 cB c2 c2 | d3 c B2 A2 | (G2 F2 G4) | F8 | =E2 F2 G4- | G4 F4 | G8 | A8 || F8 | D6 G2 | F8 | %99
w: * ve ghir- lan- de|di per- pe- tue|glo\- * *|rie,|di per- pe\-|* tue|glo-|rie.|Men-|tre no-|vel-|
 B8 | G2 c2 B4 | B8 | z4 F4 | F4 F4 | B8 | B8 | B2 d2 B4 | B4 z2 F2 | (A2 B2 A2 G2 | A2 B2 c2 d2 | %110
w: la~~al-|ma Vit- to-|ria,|Vit-|to- ria,|Vit-|to-|ria, Vit- to-|ria in-|tor\- * * *||
 c4) c2 F2 | G3 G G2 G2 | G8 | ^F4 F4 | G8 | A8 | B8 | B8 | z4 A4 | c2 G2 E4 | D4 z2 E2 | %121
w: * no, Di|nu- me- ro~~in- fi-|ni-|to il|ca-|ro|cin-|to|De'|co- ri~~e d'al-|me, de'|
 G2 D2 E4 | G4 z2 D2 | F2 C2 C4 | G8- | G8 | z4 z2 c2 | c2 =B2 c4 | G8- | G4 z2 =E2 | =E4 E2 E2- | %131
w: co- ri~~e d'al-|me, il|car- ro cin-|to||de|co- ri~~e d'al-|me|* in|bel tri- on\-|
 E2 F2 (D2 _E2 | F8- | F8) | D8 | B8 | F2 F2 G4 | (FEDC D4) | z2 d2 (BABc | d4) D4 | z2 F2 G4- | %141
w: * fo me\- *|||na.|Gl'oc-|chi son l'ar-|mi, * * * *|son l'ar\- * * *|* mi,|son l'ar\-|
 G4 F4 | z8 | c8 | B6 B2 | B2 _A2 (A2 GF | G8) | F8 | B,4 C2 D2 | E2 F2 z2 F2 | E2 D2 C2 B,2 | %151
w: * mi||e|più d'u-|na ca- te\- * *||na|Son le tue|trec- cie, son|le tue trec- cie,|
 z2 B,2 C2 D2 | (E4 F4) | B,8 | z8 | F8 | G6 G2 | E4 G4 | G8 | ^F4 F4 | G8 | G8 | F8 | F4 F4 | G8 | %165
w: son le tue|trec\- *|cie.||O|for- tu-|na- to|gior-|no ch'io|ve-|ni~~e|vi-|di~~e res-|tai|
 (A6 B2) | c8 | F8 | z8 | z8 | F8 | F8- | F8 | !fermata!F8 |] %174
w: pre\- *||so|||e|vin\-||to.|
V:4
 D8- | D8 | C8 | C8 | C4 C4 | C8 | A,8 | D4 F4 | (F4 E2 D2 | C8) | B,8 | z4 F4 |[M:2/2] F8 | D8 | %14
w: Ce\-||dan|l'an-|ti- che|tue|chia-|re vit-|to\- * *||rie|Re-|gi-|na,|
 z8 | z4 F4 | F8 | D8 | z8 | z8 | F4 F2 F2 | G4 A4 | F2 F2 (FEDC | B,CDE F4) | F8- | F8 | %26
w: |re-|gi-|na|||al- tie- ra|Ro- ma,|E~~i grand' ar\- * * *||chi,||
 E2 E2 (EDCB, | C4) C4 | z2 C2 A,4- | A,4 F,4- | F,4 F4- | F4 D4- | D4 B,4 | z2 G3 G A2 | B4 B,4 | %35
w: e~~i grand' ar\- * * *|* chi|ch'il tem\-|* po,|* ch'il|* tem\-|* po|an- co non|do- ma|
 z4 F4 | F8 | (B,CDE F4) | z8 | z4 G4- | G4 G4 | F2 F2 F2 F2 | F4 F4 ||[M:3/2] x12 |[M:3/2] D8 D4 | %45
w: S'in-|chi-|nin * * * *||con|* le|lor al- te me-|mo- rie.||Can- tin,|
 B,8 D4 | C4 C4 C4 | D8 F4 | E8 D4- | D4 C8 ||[M:2/2] B,8 | z4 z2 F,2 |[M:2/2] (B,CDE F4) | %53
w: can- tin|no- vi po-|e- mi~~e|nov' hist\-|* o-|rie|De|tuoi * * * *|
 z2 B3 B A2 | B4 z2 F2- | FF E2 D4 | =E8 | F8 | G4 F4 | F8 | F8 | z4 (F4- | F2 =ED E2 F2 | %63
w: no- vi tro-|fei, no\-|* vi tro- fe-|i|la|no- bil|so-|ma|Cin\-||
 =E2 F4 E2) | F8 | z8 | C8 | D6 E2 | F8- | F8 | B,8- | B,8 | z8 | z8 | z8 | z8 | z8 | G6 FE | %78
w: |ga||E|cin\- *|||ga|||||||No- ve ghir-|
 F4 F4 | B,8 | C8 | D4 D4 | C8 | F8- | F8 | z8 | z8 | z4 B4- | B2 AG A2 A2 | B3 A G2 F2 | %90
w: lan- de|di|per-|pe- tue|glo-|rie,||||no\-|* ve ghir- lan- de|di per- pe- tue|
 (=E2 F4 E2) | F4 z4 | G2 F2 =E2 D2 | C8- | C8 | C8 || z4 F4- | F4 D4- | D2 C2 F4 | D8 | D2 F2 D4 | %101
w: glo\- * *|rie,|di per- pe- tue|glo\-||rie.|Men\-|* tre|* no- vel-|la~~al-|ma Vit- to-|
 D2 B,2 D4 | D8- | D8 | z2 D2 B,4 | D2 F2 F4 | F4 z2 F2 | D4 D4 | F8- | F8 | F4 z2 C2 | %111
w: ria, Vit- to-|ria,||Vit- to-|ria, Vit- to-|ria, Vit-|to- ria~in-|tor\-||no, Di|
 C3 C C2 C2 | D8- | D8 | (D6 E2 | F8) | z2 G2 (G2 FE | D2) F2 (F2 ED | C4) C2 F2 | E2 D2 G4 | G8- | %121
w: nu- me- ro~~in- fi-|ni\-||to *||il ca\- * *|* ro cin\- * *|* to De'|co- ri~~e d'al|me,|
 G8 | z2 G2 (G2 FE | D2) F2 (F3 E | D4) G4 | z4 z2 E2 | G2 G2 G4- | G4 C4 | z8 | z4 z2 C2 | %130
w: |il car\- * *|* ro cin\- *|* to|de'|co- ri~~e d'al\-|* me,||in|
 C4 C2 C2- | C2 C2 (F2 E2 | D8 | C8) | B,8- | B,8 | B8 | B8 | z2 F2 (DCDE | F4) B,4 | %140
w: bel tri- on\-|* fo me\- *|||na.||Gl'oc-|chi|son l'ar\- * * *|* mi,|
 z2 D2 (B,A,B,C | D4) D2 D2 | (F=EFG A4) | G8 | z8 | z8 | z8 | z8 | z4 z2 B,2 | C2 D2 E2 F2 | %150
w: son l'ar\- * * *|* mi, son|l'ar\- * * * *|mi,|||||Son|le tue trec- cie,|
 z2 F2 E2 D2 | C2 B,2 z4 | z8 | z8 | D8- | D8 | B,6 B,2 | B,4 C4 | D8 | D4 D4 | D8 | C8 | z8 | z8 | %164
w: son le tue|trec- cie.|||O||for- tu-|na- to|gior-|no ch'io|ve-|ni|||
 E4 E4 | F8 | (G6 A2 | B8) | A4 G4 | F8 | z4 C4- | C4 B,4 | C8 | !fermata!D8 |] %174
w: e res-|tai|pre\- *||so~~e vin-|to,|pre\-|* so~~e|vin-|to.|
V:5
 B8- | B8 | A8- | A4 F4 | G4 G4 | F4 (A4- | A2 B2 c4) | F4 B4 | (c8 | F8) | F8 | z4 B4 | %12
w: Ce\-||dan|* l'an-|ti- che|tue chia\-||re vit-|to\-||rie|Re-|
[M:2/2][K:treble-8] (B2 AG A2) F2 | G2 A2 B4 | F8 | z4 z2 B2 | (B2 AG A2) F2 | G2 A2 B4 | %18
w: gi\- * * * na~an-|cor del mon-|do,|re-|gi\- * * * na~an-|cor del mon-|
 F4 B2 d2 | c4 F4 | z8 | z8 | B2 B2 (Bcde | fedc B4) | c8 | F2 F2 (FGAB | cdef gfed | c2 BA G4) | %28
w: d'al- tie- ra|Ro- ma,|||E~~i grand' ar\- * * *||chi,|e~~i grand' ar\- * * *|||
 F8 | z4 f4- | f4 d4- | d4 B4 | z8 | z2 e3 d c2 | (B3 c d3 e | f8) | d8 | z4 B4 | B8 | E4 e4- | %40
w: chi|ch'il|* tem\-|* po,||an- co non|do\- * * *||ma|s'in-|chi-|nin con|
 e4 c4 | d2 B2 A2 B2 | F4 F4 ||[M:3/2] x12 |[M:3/2][K:treble-8] B8 B4 | G8 B4 | c4 A4 F4 | F8 B4 | %48
w: * le|lor al- te me-|mo- rie.||Can- tin,|can- tin|no- vi po-|e- mi~~e|
 z4 c4 A4 | (B4 F8) ||[M:2/2] F4 z2 F2 | (Bcde f4) |[M:2/2][K:treble-8] z2 B3 B A2 | B4 z2 F2 | %54
w: nov' hist-|o\- *|rie de|tuoi * * * *|no- vi tro-|fei, de|
 (Bcde f4) | z8 | z8 | c8 | c4 c4 | B8 | c8 | z8 | z8 | c8 | z4 (f4- | f2 =ed e2 f2 | =e2 f4 e2) | %67
w: tuoi * * * *|||la|no- bil|so-|ma|||E|cin\-|||
 f8 | z8 | z8 | z4 d4- | d4 e4 | e8 | e4 e4- | e4 e4 | c8- | c4 =B4 | z8 | z8 | z8 | z8 | z4 f4- | %82
w: ga|||quel\-|* la|ve-|ne- ra\-|* bil|chio\-|* ma,|||||No\-|
 f2 =ed e2 e2 | f3 e d2 c2 | B4 F4 | z4 B4- | B2 AG A2 A2 | B3 A G2 B2 | F8 | B8 | z8 | F8 | G8 | %93
w: * ve ghir- lan- de|di per- pe- tue|glo- rie,|no\-|* ve ghir- lan- de|di per- pe- tue|glo-|rie,||di|per-|
 A4 A4 | G8 | F8 || z4 F4- | F4 B4- | B2 A2 d4 | B8 | z4 B4- | B4 G4- | G2 F2 B4 | A4 B2 d2 | %104
w: pe- tue|glo-|rie.|Men\-|* tre|* no- vel-|la,|men\-|* tre|* no- vel-|la~~al- ma Vit-|
 B4 d2 d2 | B4 d2 d2 | B4 d4 | z4 B4 | (A2 G2 A2 B2) | (A2 G2 A2 B2 | c4) c2 A2 | G3 G G2 G2 | B8 | %113
w: to- ria, Vit-|to- ria, Vit-|to- ria|in-|tor\- * * *||* no, Di|nu- me- ro~~in- fi-|ni-|
 A4 A4 | B8 | c8 | e8 | f8 | z4 c4 | c2 =B2 c4 | G4 z2 c2 | c2 =B2 c4 | G8 | z4 z2 c2 | c2 =B2 c4 | %125
w: to il|ca-|ro|cin-|to|De'|co- ri~~e d'al-|me, de'|co- ri~~e d'al-|me,|de'|co- ri~~e d'al-|
 G4 z2 c2 | c2 =B2 c4 | G4 z4 | z8 | z4 G4 | G4 G2 G2- | G2 F2 F4 | F8- | F8 | f8 | f8 | %136
w: me, de'|co- ri~~e d'al-|me||in|bel tri- on\-|* fo me-|na.||Gl'oc-|chi|
 z2 B2 (GFGA | B4 B4 | f8 | f8 | z2 B2 (GFGA | B4) B2 B2 | AGAB c4) | c8 | z8 | z8 | z8 | z8 | z8 | %149
w: son l'ar\- * * *|* mi,|gl'oc-|chi|son l'ar\- * * *|* mi, son|l'ar\- * * * *|mi||||||
 z2 f2 e2 d2 | c2 B2 z2 B2 | c2 d2 e2 f2 | z8 | z8 | B8- | B8 | G6 G2 | G4 G4 | G8 | A8 | z8 | %161
w: Son le tue|trec- cie, son|le tue trec- cie.|||O||for- tu-|na- to|gior-|no||
 z4 c4 | c8 | B4 B4 | B8 | F8 | c8 | z4 d4- | d4 G4 | c4 f4 | f4 F4 | A4 d4 | c8 | !fermata!B8 |] %174
w: e|vi-|di~~e res-|tai|pre-|so|e|* vin-|to, e|re- stai|pre- so~~e|vin-|to.|
V:6
 B,,8- | B,,8 | F,8 | F,8 | C,4 C,4 | F,8 | F,8 | D,4 B,,4 | F,8- | F,8 | B,,8- | B,,8 | %12
w: Ce\-||dan|l'an-|ti- che|tue|chia-|re vit-|to\-||rie||
[M:2/2] z8 | z4 z2 B,2 | (B,2 A,G, A,2) F,2 | G,2 A,2 B,4 | F,8 | z8 | z8 | z8 | F,4 B,2 D2 | %21
w: |Re-|gi\- * * * na~an-|cor del mon-|do,||||al- tie- ra|
 C4 F,4 | B,,2 B,,2 B,,4 | B,,8 | F,2 F,2 (F,G,A,B, | CB,A,G, F,4) | C,8- | C,8 | F,8 | D,8 | %30
w: Ro- ma,|E~~i grand' ar-|chi,|e~~i grand' ar\- * * *||chi||ch'il|tem-|
 B,,8 | B,8 | G,8 | E,4 z4 | z2 B,3 A, G,2 | F,4 F,4 | B,8 | B,8 | E,8- | E,8 | z8 | z8 | z8 || %43
w: po,|ch'il|tem-|po|an- co non|do- ma|s'in-|chi-|nin.|||||
[M:3/2] x12 |[M:3/2] B,,8 B,,4 | E,8 B,,4 | F,4 F,4 F,4 | B,,8 B,,4 | E,4 C,4 (D,4- | %49
w: |Can- tin,|can- tin|no- vi po-|e- mi~~e|nov' hist- o\-|
 D,2 E,2 F,8) ||[M:2/2] B,,8 | z8 |[M:2/2] z4 z2 F,2 | (B,,C,D,E, F,4) | z2 B,3 B, A,2 | G,8 | %56
w: |rie||de|tuoi * * * *|no- vi tro-|fe-|
 C,8 | F,8 | =E,4 F,4 | B,,8 | F,8 | z8 | z8 | z8 | z8 | z8 | z8 | z8 | z8 | z8 | z4 B,4- | %71
w: i|la|no- bil|so-|ma||||||||||quel\-|
 B,4 E,4 | E,8 | E,4 _A,4- | A,4 E,4 | F,8 | G,8 | z8 | z8 | z8 | z8 | z8 | z8 | z4 B,4- | %84
w: * la|ve-|ne- ra\-|* bil|chio-|ma,|||||||No\-|
 B,2 A,G, A,2 A,2 | B,3 A, G,2 B,2 | F,4 F,4 | z8 | z8 | B,,8 | C,8 | D,4 D,4 | C,8- | C,8 | C,8 | %95
w: * ve ghir- lan- de|di per- pe- tue|glo- rie,|||di|per-|pe- tue|glo\-|||
 F,8 || z8 | z8 | z4 B,4- | B,4 G,4- | G,2 F,2 B,4 | (B,,6 C,2 | D,8) | D,2 D,2 B,,4 | B,,8 | %105
w: rie.|||Men\-|* tre|* no- vel-|la~~al\- *||ma Vit- to-|ria,|
 z2 B,,2 B,4 | B,,2 B,,2 B,4 | B,,8 | F,8- | F,8 | F,4 F,4 | C,3 C, C,2 C,2 | G,8 | D,4 D,4 | G,8 | %115
w: Vit- to-|ria, Vit- to-|ria~in-|tor\-||no, Di|nu- me- ro~~in- fi-|ni-|to il|ca-|
 F,8 | (E,4 D,3 C, | B,,8) | F,8 | z4 z2 C2 | C2 =B,2 C4 | G,4 z2 C2 | (C2 B,A, G,2) B,2 | %123
w: ro|cin\- * *||to|De'|co- ri~~e d'al-|me, il|car\- * * * ro|
 (B,2 A,G, F,4) | G,4 z2 C2 | C2 =B,2 C4 | G,4 z4 | z2 G,2 _A,2 F,2 | G,8 | C,4 C,4 | %130
w: cin\- * * *|to de'|co- ri~~e d'al-|me,|de' co- ri~~e|d'al-|me in|
 C,4 C,2 C,2- | C,2 F,2 (B,,4- | B,,2 C,2 D,2 E,2 | F,8) | B,,8 | B,8 | B,8 | z2 B,2 (G,F,G,A, | %138
w: bel tri- on\-|* fo me\-|||na.|Gl'oc-|chi|son l'ar\- * * *|
 B,8) | B,,8 | B,4 B,2 B,2 | (G,F,G,A, B,4) | F,8 | z8 | z8 | z8 | z8 | z8 | z8 | z2 B,,2 C,2 D,2 | %150
w: |mi,|gl'oc- chi son|l'ar\- * * * *|mi|||||||Son le tue|
 E,2 F,2 z2 F,2 | E,2 D,2 C,2 B,,2 | z8 | z8 | B,,8- | B,,8 | E,6 E,2 | E,4 C,4 | G,8 | D,4 D,4 | %160
w: trec- cie, son|le tue trec- cie.|||O||for- tu-|na- to|gior-|no ch'io|
 G,8 | C,8 | F,8 | B,,4 B,,4 | E,8 | D,8 | C,8 | (B,,6 C,2 | D,4 E,4 | F,8- | F,8 | F,8 | F,8) | %173
w: ve-|ni~~e|vi-|di~~e res-|tai|pre-|so~~e|vin\- *||||||
 !fermata!B,,8 |] %174
w: to.|

